X:1
T:Guardame las vacas
T:Guardame las vacas
T:Luys de Narváez
C:Luys de Narvayez
L:1/8
Q:1/4=160
M:6/4
K:C
V:1 tab stafflines=6 strings=G2,C3,F3,A3,D4,G4 nostems nm="Lute" snm="Lt."
V:1
 [!5!_E,!1!G]2 !2!_E2 !3!C2 !3!_B,2 !4!G,2 !5!E,2 | %1
 [!6!_B,,!2!D]2 !2!F2 !2!D2 !3!_B,2 !4!F,2 !6!B,,2 | %2
 !5!C,2 [!4!G,!2!_E]2 [!6!_B,,!2!D]2 [!5!C,!4!G,!2!E]2 !2!F !2!E !2!D !3!C | %3
 [!6!G,,!3!B,] !3!A, !3!B, !3!C !2!D2 !4!G,2 !5!D,2 !6!G,,2 | %4
 [!5!_E,!1!G]2 !2!_E2 !3!C2 !3!_B,2 !4!G,2 !5!E,2 | %5
 [!6!_B,,!2!D]2 !2!F2 !2!D2 !3!_B,2 !4!F,2 !6!B,,2 | %6
 [!5!C,!4!G,!2!_E] !2!F !2!E !2!D !3!C !3!B, [!5!C,!3!C]2 [!6!G,,!4!G,]2 !3!B,2 | %7
 !fermata![!5!C,!3!C]2 x2 x8 || %8
 [!5!_E,!1!G]2 !2!_E !2!F !1!G !2!F [!5!E,!1!^G] !1!=G !2!F !2!E !2!D !3!C | %9
 [!6!_B,,!2!D] !3!A, !3!_B, !3!C !2!D !3!C !2!D !2!E [!6!B,,!2!F] !2!E !2!F !2!D | %10
 [!5!C,!2!_E] !2!D !2!E !2!F !1!G !2!F [!5!C,!1!^G] !1!=G !2!F !2!E !2!D !3!C | %11
 [!6!G,,!3!B,] !3!A, !3!B, !3!C !2!D2 !4!G,2 !5!D,2 !6!G,,2 | %12
 [!5!_E,!1!G]2 !2!_E !2!F !1!G !2!F [!5!E,!1!^G] !1!=G !2!F !2!E !2!D !3!C | %13
 [!6!_B,,!2!D] !3!A, !3!_B, !3!C !2!D !3!C !2!D !2!E [!6!B,,!2!F] !2!E !2!F !2!D | %14
 [!5!C,!2!_E] !2!D !2!E !2!F !1!G !1!A !1!B !1!c [!6!G,,!1!B]2 !2!G2 | %15
 !fermata![!5!C,!1!c]2 x2 x8 || !5!_E,2 !1!G !1!A !1!_B2 !4!G, !3!A, !3!_B,2 !5!E,2 | %17
 !6!_B,,2 !2!D !2!E !2!F2 !5!D, !5!E, !4!F,2 !6!B,,2 | %18
 [!5!C,!3!_E]2 !1!c !1!d !1!_e2 !3!C !3!D [!5!C,!3!E!1!c]2 !2!F2 | %19
 [!6!G,,!3!D!2!G!1!B]2 !3!B, !3!C !2!D2 !6!B,, !5!C, !5!D,2 !6!G,,2 | %20
 !5!_E,2 !2!G !2!^G !1!_B !2!G [!5!E,!1!c] !1!B !2!G !2!=G !2!F !3!_E | %21
 [!6!_B,,!3!D] !3!_E !2!F !3!E !3!D !3!C !4!_B, !4!^G, !4!=G, !4!F, !5!_E, !5!D, | %22
 !5!C,2 [!4!G,!2!_E]2 [!6!_B,,!2!D]2 [!6!^G,,!3!C]2 [!6!=G,,!2!D]2 !3!B,2 | %23
 !fermata![!5!C,!3!C]2 x2 x8 || %24
 [!5!_E,!1!G]2 !5!C, !5!D, !5!E, !4!F, !4!G,2 !3!_B, !3!C !2!D !2!E | %25
 !2!F2 !6!_B,, !5!C, !5!D, !5!E, !4!F,2 !5!D,2 !6!B,,2 | %26
 [!5!C,!2!_E]2 !3!C !2!D !2!E !2!F !1!G2 !1!A !1!B !1!c !1!d | %27
 [!6!G,,!1!B]2 !4!G, !3!A, !3!B, !3!C !2!D2 !4!G,2 !5!D,2 | %28
 [!5!_E,!1!G]2 !5!C, !5!D, !5!E, !4!F, !4!G, !3!A, !3!_B, !3!C !2!D !2!E | %29
 !2!F !1!G !1!A !1!B !1!c !1!_e !1!d2 !4!_B,2 !6!_B,,2 | %30
 [!5!C,!4!G,!2!_E!1!G]2 !3!A, !3!B, !3!C !3!B, !3!C2 [!6!G,,!3!C!2!D!1!G]2 !3!B,2 | %31
 [!5!C,!3!C] !5!D, !5!_E, !4!F, !4!G,2 !5!E,2 !5!C,2 [!2!_E!1!G]2 | %32
 [!2!F!1!^G]2 [!2!_E!1!=G]2 [!3!D!2!F]2 [!3!C!2!E]2 !2!D2 [!4!G,!3!B,]2 | %33
 [!5!F,!4!^G,!3!C]2 [!5!_E,!4!=G,]2 [!5!D,!4!F,]2 [!6!C,!5!E,]2 [!6!B,,!5!D,]2 !1!G2 | %34
 [!5!C,!1!^G]2 [!5!_E,!3!_B,!1!=G]2 [!6!_B,,!3!D!2!F]2 [!5!C,!3!C!2!_E]2 [!6!G,,!4!G,!3!C!2!D]2 !3!=B,2 | %35
 !fermata![!5!C,!3!C]2 x2 x8 |] %36

